X: 2
T: Paddy Fahey's
R: reel
M: 4/4
L: 1/8
K: Cmaj
|:c2ge fdcd|cBGF DEFD|Gc~c2 gceg|fdcd cBGF|Ecde efdc|BdGA _B=BcG|dg~g2 defa|gfdc BGFD:|


Tune 1402	Setting 14772

